X:1
T:Title
%%score { 1 | ( 2 3 ) }
L:1/8
Q:1/4=100
M:6/8
K:Bb
V:1 treble nm="Grand Piano"
V:2 bass 
V:3 bass 
V:1
 [Fd]2 [Fd] [=E_d]2 [Ed] | [Ec]2 [Ec] [DB]2 [DG] | .[DF]2 [B,DA] [DB]2 [Dc] | [EB]3 [EA]3 | %4
w: Powell~G.~Fithian * * *||||
 [Ge]2 [Ge] d2 d | c2 c B2 B | A2 A B2 G | c3 .[FAf]3 | [Fd]2 [Fd] [=E_d]2 [Ed] | %9
w: |||||
 [Ec]2 [Ec] [DB]2 [DG] | .[DF]2 [B,DA] [DB]2 [DG] | B3 A3 | GAG c2 A | .[C^FA]2 [CFA] d2 B | %14
w: |||||
 GcB [FA]2 [=EG] | F6 | F2 [Ge] [Ge]2 d | c2 =B c3 | [DF]2 [Fd] [Fd]2 [Ec] | [DB]2 [_DA] [=DB]3 | %20
w: ||||||
 A2 B B2 =B | =B2 c c3 | [DF]2 [DB] [DB]2 [Ec] | [Ec]2 [Fd] [Fd]3 | F2 [Ge] [Ge]2 d | c2 =B c3 | %26
w: ||||||
 [DF]2 [Fd] [Fd]2 [Ec] | [DB]2 [_DA] [=DB]3 | G2 A B2 G | [Gc]2 [Gd] [Ge][Gd][Gc] | f2 d B2 c | %31
w: |||||
 [DB]6 |] %32
w: |
V:2
 [B,,F,]2 [B,,F,] [B,,G,]2 [B,,G,] | [B,,A,]2 [B,,A,] [B,,B,]2 [B,,B,] | z GB,, [B,,F,]2 [B,,F,] | %3
 [C,F,]3 [C,F,]3 | F,2 F, [F,F]2 [F,F] | [F,A,E]2 [F,A,E] [F,B,D]2 [F,B,D] | %6
 [F,C]2 [F,CF] [G,C=E]2 [G,CE] | [F,A,E]3 .[F,,F,]3 | [B,,F,]2 [B,,F,] [B,,G,]2 [B,,G,] | %9
 [B,,A,]2 [B,,A,] [B,,B,]2 [B,,B,] | z GB,, [B,,F,]2 [B,,F,] | [C,F,C]3 [C,F,C]3 | %12
 [B,C=E]2 [B,CE] [A,CF]2[K:bass] [F,CF] | z[K:treble] BD, [G,B,G]2 [G,DG] | %14
 D-[A,D^F][G,DG][K:bass] [C,C]2 [C,B,] | [F,A,]6 | [F,A,]2 [F,A,] [F,A,]2 [F,A,F] | %17
 [F,A,E]2 [F,_A,D] [F,=A,E]3 | [B,,B,]2 [B,,B,] [B,,B,]2 [B,,B,] | [B,,B,]2 [B,,B,] [B,,B,]3 | %20
 [F,C]2 [F,D] [F,D]2 [F,_A,D] | [F,A,D]2 [F,A,E] [F,A,E]3 | [B,,B,]2 [B,,F,] [B,,F,]2 [B,,F,] | %23
 [B,,F,]2 [B,,F,] [B,,F,]3 | [F,A,]2 [F,A,] [F,A,]2 [F,A,F] | [F,A,E]2 [F,_A,D] [F,=A,E]3 | %26
 [B,,B,]2 [B,,B,] [B,,B,]2 [B,,B,] | [B,,B,]2 [B,,B,] [B,,B,]3 | G,2 A, B,2 G, | %29
 [E,G,]2 [G,=B,] [C,C][D,B,][E,C] | [F,DF]2 [F,B,F] [F,G,E]2 [F,A,E] | [B,,F,B,]6 |] %32
V:3
 x6 | x6 | .[B,,B,]3 z3 | x6 | x6 | x6 | x6 | x6 | x6 | x6 | .[B,,B,]3 z3 | x6 | x5[K:bass] x | %13
 .D,3[K:treble] z3 | .B,3[K:bass] z3 | x6 | x6 | x6 | x6 | x6 | x6 | x6 | x6 | x6 | x6 | x6 | x6 | %27
 x6 | x6 | x6 | x6 | x6 |] %32

